public/images/redis.svg

<svg height="800" preserveAspectRatio="xMidYMid" viewBox="0 -18 256 256" width="800" xmlns="http://www.w3.org/2000/svg"><path d="m245.969687 168.943256c-13.661428 7.121223-84.433639 36.220132-99.50111 44.074377-15.06647 7.856246-23.436733 7.780243-35.339104 2.090066-11.9023723-5.690178-87.2167257-36.112129-100.7831496-42.596331-6.78121199-3.241101-10.3463234-5.976187-10.3463234-8.560268v-25.875808s98.0490639-21.345667 113.878559-27.023845c15.828494-5.679178 21.320666-5.884183 34.791087-.950029 13.471421 4.935154 94.016937 19.467608 107.330354 24.34376 0 0-.006001 23.110722-.006001 25.509797.002001 2.55808-3.070095 5.364168-10.024312 8.988281" fill="#912626"/><path d="m245.964922 143.220067c-13.660987 7.117993-84.430919 36.217965-99.497905 44.071957-15.065986 7.856994-23.435978 7.779993-35.337967 2.089999-11.9029882-5.685995-87.2139164-36.112966-100.7799034-42.59396-13.56598713-6.484994-13.85098686-10.947989-.52399955-16.165984 13.32598725-5.219995 88.22391585-34.6049673 104.05489995-40.2839618 15.827986-5.6769946 21.318981-5.8839944 34.788967-.9479991 13.470988 4.9339953 83.818921 32.9349689 97.130908 37.8099639 13.314988 4.880996 13.825986 8.898991.165 16.019985" fill="#c6302b"/><path d="m245.969687 127.074354c-13.661428 7.121223-84.433639 36.220132-99.50111 44.077378-15.06647 7.853245-23.436733 7.777243-35.339104 2.087065-11.9033723-5.687178-87.2167257-36.112129-100.7831496-42.596332-6.78121199-3.241101-10.3463234-5.973186-10.3463234-8.557266v-25.8788095s98.0490639-21.3446669 113.878559-27.0238445c15.828494-5.6781774 21.320666-5.8841838 34.791087-.9500296 13.471421 4.9351543 94.016937 19.4646083 107.330354 24.3417607 0 0-.006001 23.1107219-.006001 25.5127969.002001 2.55708-3.070095 5.363168-10.024312 8.987281" fill="#912626"/><path d="m245.964922 101.351164c-13.660987 7.119993-84.430919 36.217965-99.497905 44.074958-15.065986 7.853992-23.435978 7.776992-35.337967 2.086998-11.9029882-5.685995-87.2139164-36.111966-100.7799034-42.59396-13.56598713-6.4829936-13.85098686-10.9469894-.52399955-16.1669844 13.32598725-5.216995 88.22391585-34.6039669 104.05489995-40.2819615 15.827986-5.6779946 21.318981-5.8839944 34.788967-.9489991 13.470988 4.9339952 83.818921 32.9329685 97.130908 37.8099639 13.314988 4.8789953 13.825986 8.8989915.165 16.0189841z" fill="#c6302b"/><path d="m245.969687 83.6525661c-13.661428 7.1212226-84.433639 36.2211319-99.50111 44.0783779-15.06647 7.854245-23.436733 7.777243-35.339104 2.087064-11.9033723-5.687177-87.2167257-36.1131278-100.7831496-42.5953303-6.78121199-3.2421013-10.3463234-5.9751868-10.3463234-8.5572675v-25.8798087s98.0490639-21.343667 113.878559-27.0218444c15.828494-5.6791774 21.320666-5.8841838 34.791087-.9500296 13.471421 4.9351542 94.016937 19.4646082 107.330354 24.3417606 0 0-.006001 23.1107222-.006001 25.5117972.002001 2.5550799-3.070095 5.3611675-10.024312 8.9852808" fill="#912626"/><path d="m245.964922 57.929387c-13.660987 7.1199932-84.430919 36.2199654-99.497905 44.074958-15.065986 7.853993-23.435978 7.776993-35.337967 2.088998-11.9019883-5.6879946-87.2139164-36.1119657-100.7799034-42.5949594-13.56598713-6.4829938-13.85098686-10.9479896-.52399955-16.1669846 13.32598725-5.217995 88.22391585-34.601967 104.05489995-40.28196156 15.827986-5.67899459 21.318981-5.88299439 34.788967-.9479991 13.470988 4.93499529 83.818921 32.93396856 97.130908 37.81096386 13.314988 4.8759954 13.825986 8.8969916.165 16.0169848" fill="#c6302b"/><g fill="#fff"><path d="m159.282977 32.7570853-22.009055 2.2851473-4.927503 11.8553798-7.958822-13.2296434-25.41445-2.284155 18.963845-6.8385737-5.68955-10.4979845 17.754294 6.943752 16.738233-5.4801861-4.523659 10.8551938z"/><path d="m131.03169 90.2747287-41.0770853-17.0368992 58.8611473-9.0344186z"/><path d="m74.0816124 39.3466047c17.3752558 0 31.4602166 5.460341 31.4602166 12.1947286 0 6.7353799-14.0849608 12.1947287-31.4602166 12.1947287-17.3742636 0-31.4602171-5.4593488-31.4602171-12.1947287 0-6.7343876 14.0859535-12.1947286 31.4602171-12.1947286"/></g><path d="m185.29476 35.9977674 34.835845 13.7664497-34.806078 13.7525581z" fill="#621b1c"/><path d="m146.754853 51.2426667 38.539907-15.2448993.029767 27.5190078-3.77848 1.4784496z" fill="#9a2928"/></svg>

<?xml version="1.0" encoding="UTF-8" standalone="no" ?>
<!-- Uploaded to: SVG Repo, www.svgrepo.com, Generator: SVG Repo Mixer Tools -->
<svg width="800px" height="800px" viewBox="0 -18 256 256" version="1.1" xmlns="http://www.w3.org/2000/svg" xmlns:xlink="http://www.w3.org/1999/xlink" preserveAspectRatio="xMidYMid">
    <g>
        <path d="M245.969687,168.943256 C232.308259,176.064479 161.536048,205.163388 146.468577,213.017633 C131.402107,220.873879 123.031844,220.797876 111.129473,215.107699 C99.2271007,209.417521 23.9127473,178.99557 10.3463234,172.511368 C3.56511141,169.270267 0,166.535181 0,163.9511 L0,138.075292 C0,138.075292 98.0490639,116.729625 113.878559,111.051447 C129.707053,105.372269 135.199225,105.167264 148.669646,110.101418 C162.141067,115.036572 242.686583,129.569026 256,134.445178 C256,134.445178 255.993999,157.5559 255.993999,159.954975 C255.996,162.513055 252.923904,165.319143 245.969687,168.943256" fill="#912626">
</path>
        <path d="M245.964922,143.220067 C232.303935,150.33806 161.534003,179.438032 146.467017,187.292024 C131.401031,195.149018 123.031039,195.072017 111.12905,189.382023 C99.2260618,183.696028 23.9151336,153.269057 10.3491466,146.788063 C-3.21684053,140.303069 -3.50184026,135.840074 9.82514705,130.622079 C23.1511343,125.402084 98.0490629,96.0171117 113.880047,90.3381172 C129.708033,84.6611226 135.199028,84.4541228 148.669014,89.3901181 C162.140002,94.3241134 232.487935,122.325087 245.799922,127.200082 C259.11491,132.081078 259.625908,136.099073 245.964922,143.220067" fill="#C6302B">
</path>
        <path d="M245.969687,127.074354 C232.308259,134.195577 161.536048,163.294486 146.468577,171.151732 C131.402107,179.004977 123.031844,178.928975 111.129473,173.238797 C99.2261007,167.551619 23.9127473,137.126668 10.3463234,130.642465 C3.56511141,127.401364 0,124.669279 0,122.085199 L0,96.2063895 C0,96.2063895 98.0490639,74.8617226 113.878559,69.182545 C129.707053,63.5043676 135.199225,63.2983612 148.669646,68.2325154 C162.141067,73.1676697 242.686583,87.6971237 256,92.5742761 C256,92.5742761 255.993999,115.684998 255.993999,118.087073 C255.996,120.644153 252.923904,123.450241 245.969687,127.074354" fill="#912626">
</path>
        <path d="M245.964922,101.351164 C232.303935,108.471157 161.534003,137.569129 146.467017,145.426122 C131.401031,153.280114 123.031039,153.203114 111.12905,147.51312 C99.2260618,141.827125 23.9151336,111.401154 10.3491466,104.91916 C-3.21684053,98.4361664 -3.50184026,93.9721706 9.82514705,88.7521756 C23.1511343,83.5351806 98.0490629,54.1482087 113.880047,48.4702141 C129.708033,42.7922195 135.199028,42.5862197 148.669014,47.521215 C162.140002,52.4552102 232.487935,80.4541835 245.799922,85.3311789 C259.11491,90.2101742 259.625908,94.2301704 245.964922,101.350163 L245.964922,101.351164" fill="#C6302B">
</path>
        <path d="M245.969687,83.6525661 C232.308259,90.7737887 161.536048,119.873698 146.468577,127.730944 C131.402107,135.585189 123.031844,135.508187 111.129473,129.818008 C99.2261007,124.130831 23.9127473,93.7048802 10.3463234,87.2226777 C3.56511141,83.9805764 0,81.2474909 0,78.6654102 L0,52.7856015 C0,52.7856015 98.0490639,31.4419345 113.878559,25.7637571 C129.707053,20.0845797 135.199225,19.8795733 148.669646,24.8137275 C162.141067,29.7488817 242.686583,44.2783357 256,49.1554881 C256,49.1554881 255.993999,72.2662103 255.993999,74.6672853 C255.996,77.2223652 252.923904,80.0284528 245.969687,83.6525661" fill="#912626">
</path>
        <path d="M245.964922,57.929387 C232.303935,65.0493802 161.534003,94.1493524 146.467017,102.004345 C131.401031,109.858338 123.031039,109.781338 111.12905,104.093343 C99.2270617,98.4053484 23.9151336,67.9813773 10.3491466,61.4983836 C-3.21684053,55.0153898 -3.50184026,50.550394 9.82514705,45.331399 C23.1511343,40.113404 98.0490629,10.729432 113.880047,5.04943744 C129.708033,-0.629557148 135.199028,-0.833556953 148.669014,4.10143834 C162.140002,9.03643363 232.487935,37.0354069 245.799922,41.9124022 C259.11491,46.7883976 259.625908,50.8093938 245.964922,57.929387" fill="#C6302B">
</path>
        <path d="M159.282977,32.7570853 L137.273922,35.0422326 L132.346419,46.8976124 L124.387597,33.667969 L98.973147,31.383814 L117.936992,24.5452403 L112.247442,14.0472558 L130.001736,20.9910078 L146.739969,15.5108217 L142.21631,26.3660155 L159.282977,32.7570853" fill="#FFFFFF">
</path>
        <path d="M131.03169,90.2747287 L89.9546047,73.2378295 L148.815752,64.2034109 L131.03169,90.2747287" fill="#FFFFFF">
</path>
        <path d="M74.0816124,39.3466047 C91.4568682,39.3466047 105.541829,44.8069457 105.541829,51.5413333 C105.541829,58.2767132 91.4568682,63.736062 74.0816124,63.736062 C56.7073488,63.736062 42.6213953,58.2767132 42.6213953,51.5413333 C42.6213953,44.8069457 56.7073488,39.3466047 74.0816124,39.3466047" fill="#FFFFFF">
</path>
        <path d="M185.29476,35.9977674 L220.130605,49.7642171 L185.324527,63.5167752 L185.29476,35.9977674" fill="#621B1C">
</path>
        <path d="M146.754853,51.2426667 L185.29476,35.9977674 L185.324527,63.5167752 L181.546047,64.9952248 L146.754853,51.2426667" fill="#9A2928">
</path>
    </g>
</svg>
